icons/lines/book-square.svg

<svg xmlns="http://www.w3.org/2000/svg" width="24" height="24" viewBox="0 0 24 24" fill="none" stroke="currentColor" stroke-width="2" stroke-linecap="round" stroke-linejoin="round" >
  <path d="M9 22H15C20 22 22 20 22 15V9C22 4 20 2 15 2H9C4 2 2 4 2 9V15C2 20 4 22 9 22Z"/>
  <path d="M18.3801 15.27V7.57999C18.3801 6.80999 17.7601 6.25 17.0001 6.31H16.9601C15.6201 6.42 13.5901 7.11001 12.4501 7.82001L12.3401 7.89002C12.1601 8.00002 11.8501 8.00002 11.6601 7.89002L11.5001 7.79001C10.3701 7.08001 8.34012 6.40999 7.00012 6.29999C6.24012 6.23999 5.62012 6.81001 5.62012 7.57001V15.27C5.62012 15.88 6.1201 16.46 6.7301 16.53L6.9101 16.56C8.2901 16.74 10.4301 17.45 11.6501 18.12L11.6801 18.13C11.8501 18.23 12.1301 18.23 12.2901 18.13C13.5101 17.45 15.6601 16.75 17.0501 16.56L17.2601 16.53C17.8801 16.46 18.3801 15.89 18.3801 15.27Z"/>
  <path d="M12 8.10001V17.66"/>
  </svg>

<svg xmlns="http://www.w3.org/2000/svg" width="24" height="24" viewBox="0 0 24 24" fill="none" stroke="currentColor" stroke-width="2" stroke-linecap="round" stroke-linejoin="round">
  <path d="M12 8.1v9.56" />
  <path d="M15 22c5 0 7-2 7-7V9c0-5-2-7-7-7H9C4 2 2 4 2 9v6c0 5 2 7 7 7z" />
  <path d="M18.38 7.58A1.253 1.253 0 0 0 17 6.31c-1.38.11-3.41.8-4.55 1.51l-.11.07a.74.74 0 0 1-.68 0l-.16-.1C10.37 7.08 8.34 6.41 7 6.3a1.26 1.26 0 0 0-1.38 1.27v7.7c0 .61.5 1.19 1.11 1.26l.18.03c1.38.18 3.52.89 4.74 1.56a.69.69 0 0 0 .64.01c1.22-.68 3.37-1.38 4.76-1.57l.21-.03a1.3 1.3 0 0 0 1.12-1.26z" />
</svg>
